<?xml version="1.0" encoding="UTF-8"?>
<map version="1.10" tiledversion="1.10.2" orientation="orthogonal" renderorder="right-down" width="30" height="20" tilewidth="32" tileheight="32" infinite="0" nextlayerid="12" nextobjectid="115">
 <tileset firstgid="1" source="bricks.tsx"/>
 <layer id="1" name="background" width="30" height="20">
  <data encoding="csv">
0,5,5,5,5,5,5,5,5,5,5,5,5,5,5,5,5,5,5,5,5,5,5,5,5,5,5,5,5,0,
5,5,5,5,5,5,5,5,5,5,5,5,5,5,5,5,5,5,5,5,5,5,5,5,5,5,5,5,5,5,
5,5,5,5,5,5,5,5,5,5,5,5,5,5,5,5,5,5,5,5,5,5,5,5,5,5,5,5,5,5,
5,5,5,5,5,5,5,5,5,5,5,5,5,5,5,5,5,5,5,5,5,5,5,5,5,5,5,5,5,5,
5,5,5,5,5,5,5,5,5,5,5,5,5,5,5,5,5,5,5,5,5,5,5,5,5,5,5,5,5,5,
5,5,5,5,5,5,5,5,5,5,5,5,5,5,5,5,5,5,5,5,5,5,5,5,5,5,5,5,5,5,
5,5,5,5,5,5,5,5,5,5,5,5,5,5,5,5,5,5,5,5,5,5,5,5,5,5,5,5,5,5,
5,5,5,5,5,5,5,5,5,5,5,5,5,5,5,5,5,5,5,5,5,5,5,5,5,5,5,5,5,5,
5,5,5,5,5,5,5,5,5,5,5,5,5,5,5,5,5,5,5,5,5,5,5,5,5,5,5,5,5,5,
5,5,5,5,5,5,5,5,5,5,5,5,5,5,5,5,5,5,5,5,5,5,5,5,5,5,5,5,5,5,
5,5,5,5,5,5,5,5,5,5,5,5,5,5,5,5,5,5,5,5,5,5,5,5,5,5,5,5,5,5,
5,5,5,5,5,5,5,5,5,5,5,5,5,5,5,5,5,5,5,5,5,5,5,5,5,5,5,5,5,5,
5,5,5,5,5,5,5,5,5,5,5,5,5,5,5,5,5,5,5,5,5,5,5,5,5,5,5,5,5,5,
5,5,5,5,5,5,5,5,5,5,5,5,5,5,5,5,5,5,5,5,5,5,5,5,5,5,5,5,5,5,
5,5,5,5,5,5,5,5,5,5,5,5,5,5,5,5,5,5,5,5,5,5,5,5,5,5,5,5,5,5,
5,5,5,5,5,5,5,5,5,5,5,5,5,5,5,5,5,5,5,5,5,5,5,5,5,5,5,5,5,5,
5,5,5,5,5,5,5,5,5,5,5,5,5,5,5,5,5,5,5,5,5,5,5,5,5,5,5,5,5,5,
5,5,5,5,5,5,5,5,5,5,5,5,5,5,5,5,5,5,5,5,5,5,5,5,5,5,5,5,5,5,
5,5,5,5,5,5,5,5,5,5,5,5,5,5,5,5,5,5,5,5,5,5,5,5,5,5,5,5,5,5,
0,5,5,5,5,5,5,5,5,5,5,5,5,5,5,5,5,5,5,5,5,5,5,5,5,5,5,5,5,0
</data>
 </layer>
 <layer id="2" name="around" width="30" height="20">
  <data encoding="csv">
42,40,41,41,41,41,41,41,41,41,41,41,41,41,41,41,41,41,41,41,41,41,41,41,41,41,41,41,42,40,
36,0,0,0,0,0,0,0,0,0,0,0,0,0,0,0,0,0,0,0,0,0,0,0,0,0,0,0,0,34,
39,0,0,0,0,0,0,0,0,0,0,0,0,0,0,0,0,0,0,0,0,0,0,0,0,0,0,0,0,37,
39,0,0,0,0,0,0,0,0,34,35,35,35,36,0,0,0,0,38,36,0,0,0,0,0,0,0,0,0,37,
39,0,0,0,0,0,0,0,0,37,38,38,41,42,0,0,0,0,38,39,0,0,0,0,0,0,0,0,0,37,
39,0,0,0,0,0,0,0,0,37,38,39,0,0,0,0,37,38,38,39,0,0,0,0,0,0,0,0,0,37,
39,0,0,0,0,0,0,0,0,37,38,0,0,0,0,0,37,38,41,42,0,0,0,0,0,0,0,0,0,37,
39,0,0,0,0,0,0,0,0,37,38,38,0,0,0,1,37,38,0,0,0,0,0,0,0,0,0,0,0,37,
39,0,0,0,0,0,0,0,0,0,0,38,38,0,0,1,40,38,38,0,0,0,0,0,0,0,0,0,0,37,
39,0,0,0,0,0,0,0,0,0,0,38,0,0,0,0,0,40,38,0,0,0,0,0,0,0,0,0,0,37,
39,0,0,0,0,0,0,0,0,0,38,38,0,0,0,1,1,37,38,0,0,0,0,0,0,0,0,0,0,37,
39,0,0,0,0,0,0,0,0,38,38,0,0,0,0,0,1,37,38,0,0,0,0,0,0,0,0,0,0,37,
39,0,0,0,0,0,0,0,0,38,38,0,0,0,0,0,0,37,38,0,0,0,0,0,0,0,0,0,0,37,
39,0,0,0,0,0,0,0,0,0,38,38,0,0,0,0,0,37,38,0,0,0,0,0,0,0,0,0,0,37,
39,0,0,0,0,0,0,0,0,0,38,0,0,0,0,0,0,37,38,0,0,0,0,0,0,0,0,0,0,37,
39,0,0,0,0,0,0,0,0,0,38,0,0,0,0,0,0,37,38,0,0,0,0,0,0,0,0,0,0,37,
39,0,0,0,0,0,0,0,0,0,38,38,38,38,0,0,0,37,38,0,0,0,0,0,0,0,0,0,0,37,
39,0,0,0,0,0,0,0,0,0,0,0,0,0,0,0,0,0,0,0,0,0,0,0,0,0,0,0,0,37,
42,0,0,0,0,0,0,0,0,0,0,0,0,0,0,0,0,0,0,0,0,0,0,0,0,0,0,0,0,40,
36,34,35,35,35,35,35,35,35,35,35,35,35,35,35,35,35,35,35,35,35,35,35,35,35,35,35,35,36,34
</data>
 </layer>
 <objectgroup id="3" name="start">
  <object id="50" x="475" y="272">
   <point/>
  </object>
 </objectgroup>
 <objectgroup id="4" name="ground">
  <object id="5" x="0" y="0" width="952" height="32"/>
  <object id="6" x="0" y="32" width="32" height="608"/>
  <object id="8" x="32" y="608" width="928" height="32"/>
  <object id="9" x="928" y="0" width="32" height="608"/>
  <object id="15" x="320" y="96" width="96" height="32"/>
  <object id="16" x="320" y="96" width="32" height="160"/>
  <object id="17" x="352" y="224" width="32" height="128"/>
  <object id="18" x="384" y="256" width="32" height="32"/>
  <object id="19" x="320" y="320" width="64" height="32"/>
  <object id="20" x="320" y="352" width="32" height="192"/>
  <object id="21" x="288" y="352" width="64" height="64"/>
  <object id="23" x="320" y="512" width="128" height="32"/>
  <object id="53" x="320" y="512" width="128" height="32"/>
  <object id="24" x="576" y="96" width="32" height="96"/>
  <object id="25" x="544" y="160" width="32" height="128"/>
  <object id="26" x="576" y="256" width="32" height="288"/>
  <object id="27" x="544" y="256" width="64" height="32"/>
  <object id="28" x="544" y="160" width="64" height="32"/>
  <object id="113" x="320" y="416" width="64" height="32"/>
 </objectgroup>
 <objectgroup id="5" name="spawnpoint">
  <object id="30" x="876" y="115">
   <point/>
  </object>
  <object id="31" x="343" y="73">
   <point/>
  </object>
  <object id="32" x="108" y="87">
   <point/>
  </object>
  <object id="33" x="144" y="199">
   <point/>
  </object>
  <object id="34" x="132" y="481">
   <point/>
  </object>
  <object id="35" x="217" y="329">
   <point/>
  </object>
  <object id="36" x="201" y="588">
   <point/>
  </object>
  <object id="37" x="393" y="595">
   <point/>
  </object>
  <object id="38" x="537" y="586">
   <point/>
  </object>
  <object id="39" x="484" y="390">
   <point/>
  </object>
  <object id="40" x="476" y="219">
   <point/>
  </object>
  <object id="41" x="566" y="72">
   <point/>
  </object>
  <object id="42" x="756" y="87">
   <point/>
  </object>
  <object id="43" x="732" y="204">
   <point/>
  </object>
  <object id="44" x="819" y="337">
   <point/>
  </object>
  <object id="45" x="700" y="353">
   <point/>
  </object>
  <object id="46" x="808" y="581">
   <point/>
  </object>
 </objectgroup>
 <objectgroup id="6" name="ore_down">
  <object id="68" x="320" y="64" width="32" height="32"/>
  <object id="69" x="352" y="64" width="32" height="32"/>
  <object id="70" x="384" y="64" width="32" height="32"/>
  <object id="71" x="576" y="64" width="32" height="32"/>
  <object id="72" x="544" y="128" width="32" height="32"/>
  <object id="73" x="576" y="224" width="32" height="32"/>
  <object id="74" x="384" y="224" width="32" height="32"/>
  <object id="75" x="352" y="192" width="32" height="32"/>
  <object id="76" x="320" y="288" width="32" height="32"/>
  <object id="77" x="288" y="320" width="32" height="32"/>
  <object id="78" x="32" y="576" width="32" height="32"/>
  <object id="79" x="64" y="576" width="32" height="32"/>
  <object id="80" x="96" y="576" width="32" height="32"/>
  <object id="81" x="128" y="576" width="32" height="32"/>
  <object id="82" x="160" y="576" width="32" height="32"/>
  <object id="83" x="192" y="576" width="32" height="32"/>
  <object id="84" x="224" y="576" width="32" height="32"/>
  <object id="85" x="256" y="576" width="32" height="32"/>
  <object id="87" x="288" y="576" width="32" height="32"/>
  <object id="88" x="320" y="576" width="32" height="32"/>
  <object id="89" x="352" y="576" width="32" height="32"/>
  <object id="90" x="384" y="576" width="32" height="32"/>
  <object id="91" x="416" y="576" width="32" height="32"/>
  <object id="92" x="448" y="576" width="32" height="32"/>
  <object id="93" x="480" y="576" width="32" height="32"/>
  <object id="94" x="512" y="576" width="32" height="32"/>
  <object id="95" x="544" y="576" width="32" height="32"/>
  <object id="96" x="576" y="576" width="32" height="32"/>
  <object id="97" x="608" y="576" width="32" height="32"/>
  <object id="98" x="640" y="576" width="32" height="32"/>
  <object id="99" x="672" y="576" width="32" height="32"/>
  <object id="100" x="704" y="576" width="32" height="32"/>
  <object id="101" x="736" y="576" width="32" height="32"/>
  <object id="102" x="768" y="576" width="32" height="32"/>
  <object id="103" x="800" y="576" width="32" height="32"/>
  <object id="104" x="832" y="576" width="32" height="32"/>
  <object id="105" x="864" y="576" width="32" height="32"/>
  <object id="106" x="896" y="576" width="32" height="32"/>
  <object id="107" x="352" y="480" width="32" height="32"/>
  <object id="108" x="384" y="480" width="32" height="32"/>
  <object id="109" x="416" y="480" width="32" height="32"/>
  <object id="114" x="352" y="384" width="32" height="32"/>
 </objectgroup>
</map>
