<?xml version="1.0" encoding="UTF-8"?>
<map version="1.10" tiledversion="1.10.2" orientation="orthogonal" renderorder="right-down" width="30" height="20" tilewidth="32" tileheight="32" infinite="0" nextlayerid="5" nextobjectid="30">
 <tileset firstgid="1" source="bricks.tsx"/>
 <layer id="1" name="background" width="30" height="20">
  <data encoding="csv">
0,5,5,5,5,5,5,5,5,5,5,5,5,5,5,5,5,5,5,5,5,5,5,5,5,5,5,5,5,0,
5,5,5,5,5,5,5,5,5,5,5,5,5,5,5,5,5,5,5,5,5,5,5,5,5,5,5,5,5,5,
5,5,5,5,5,5,5,5,5,5,5,5,5,5,5,5,5,5,5,5,5,5,5,5,5,5,5,5,5,5,
5,5,5,5,5,5,5,5,5,5,5,5,5,5,5,5,5,5,5,5,5,5,5,5,5,5,5,5,5,5,
5,5,5,5,5,5,5,5,5,5,5,5,5,5,5,5,5,5,5,5,5,5,5,5,5,5,5,5,5,5,
5,5,5,5,5,5,5,5,5,5,5,5,5,5,5,5,5,5,5,5,5,5,5,5,5,5,5,5,5,5,
5,5,5,5,5,5,5,5,5,5,5,5,5,5,5,5,5,5,5,5,5,5,5,5,5,5,5,5,5,5,
5,5,5,5,5,5,5,5,5,5,5,5,5,5,5,5,5,5,5,5,5,5,5,5,5,5,5,5,5,5,
5,5,5,5,5,5,5,5,5,5,5,5,5,5,5,5,5,5,5,5,5,5,5,5,5,5,5,5,5,5,
5,5,5,5,5,5,5,5,5,5,5,5,5,5,5,5,5,5,5,5,5,5,5,5,5,5,5,5,5,5,
5,5,5,5,5,5,5,5,5,5,5,5,5,5,5,5,5,5,5,5,5,5,5,5,5,5,5,5,5,5,
5,5,5,5,5,5,5,5,5,5,5,5,5,5,5,5,5,5,5,5,5,5,5,5,5,5,5,5,5,5,
5,5,5,5,5,5,5,5,5,5,5,5,5,5,5,5,5,5,5,5,5,5,5,5,5,5,5,5,5,5,
5,5,5,5,5,5,5,5,5,5,5,5,5,5,5,5,5,5,5,5,5,5,5,5,5,5,5,5,5,5,
5,5,5,5,5,5,5,5,5,5,5,5,5,5,5,5,5,5,5,5,5,5,5,5,5,5,5,5,5,5,
5,5,5,5,5,5,5,5,5,5,5,5,5,5,5,5,5,5,5,5,5,5,5,5,5,5,5,5,5,5,
5,5,5,5,5,5,5,5,5,5,5,5,5,5,5,5,5,5,5,5,5,5,5,5,5,5,5,5,5,5,
5,5,5,5,5,5,5,5,5,5,5,5,5,5,5,5,5,5,5,5,5,5,5,5,5,5,5,5,5,5,
5,5,5,5,5,5,5,5,5,5,5,5,5,5,5,5,5,5,5,5,5,5,5,5,5,5,5,5,5,5,
0,5,5,5,5,5,5,5,5,5,5,5,5,5,5,5,5,5,5,5,5,5,5,5,5,5,5,5,5,0
</data>
 </layer>
 <layer id="2" name="around" width="30" height="20">
  <data encoding="csv">
11,3221225476,3221225476,3221225476,3221225476,3221225476,3221225476,3221225476,3221225476,3221225476,3221225476,3221225476,3221225476,3221225476,3221225476,3221225476,3221225476,3221225476,3221225476,3221225476,3221225476,3221225476,3221225476,3221225476,3221225476,3221225476,3221225476,3221225476,3221225476,2684354571,
2684354564,0,0,0,0,0,0,0,0,0,0,0,0,0,0,0,0,0,0,0,0,0,0,0,0,0,0,0,0,1610612740,
2684354564,0,0,0,0,0,0,0,0,0,0,0,0,0,0,0,0,0,0,0,0,0,0,0,0,0,0,0,0,1610612740,
2684354564,0,0,0,0,0,0,0,0,0,2,2,2,0,0,0,0,0,2,5,0,0,0,0,0,0,0,0,0,1610612740,
2684354564,0,0,0,0,0,0,0,0,0,2,0,0,0,0,0,0,0,2,0,0,0,0,0,0,0,0,0,0,1610612740,
2684354564,0,0,0,0,0,0,0,0,0,2,0,0,0,0,0,0,2,2,0,0,0,0,0,0,0,0,0,0,1610612740,
2684354564,0,0,0,0,0,0,0,0,0,2,0,0,0,0,0,0,2,0,0,0,5,0,0,0,0,5,0,0,1610612740,
2684354564,0,0,0,0,0,0,0,0,0,2,2,0,0,0,1,0,2,0,0,0,0,5,0,0,0,0,0,0,1610612740,
2684354564,0,0,0,0,0,0,0,0,0,0,2,2,0,0,1,0,2,2,5,0,0,0,0,0,0,0,0,0,1610612740,
2684354564,0,0,0,0,0,0,0,0,0,0,2,0,0,0,0,0,0,2,5,0,0,0,0,0,0,0,0,0,1610612740,
2684354564,0,0,0,0,0,0,0,0,0,2,2,0,0,0,1,1,0,2,5,5,1,0,0,0,0,0,0,0,1610612740,
2684354564,0,0,0,0,0,0,0,0,2,2,0,0,0,0,0,1,1,2,5,5,0,0,0,0,0,0,0,0,1610612740,
2684354564,0,0,0,0,0,0,0,0,2,2,5,5,0,5,5,5,5,2,5,5,0,0,0,0,0,0,0,0,1610612740,
2684354564,0,0,0,0,0,0,0,0,0,2,2,0,0,0,0,0,0,2,0,0,0,0,0,0,0,0,0,0,1610612740,
2684354564,0,0,0,0,0,0,0,0,0,2,0,0,0,0,0,0,0,2,0,0,0,0,0,0,0,0,0,0,1610612740,
2684354564,0,0,0,0,0,0,0,0,0,2,0,0,0,0,0,0,0,2,0,0,0,0,0,0,0,0,0,0,1610612740,
2684354564,0,0,0,0,0,0,0,0,0,2,2,2,2,0,0,0,0,2,0,0,0,0,0,0,0,0,0,0,1610612740,
2684354564,0,0,0,0,0,0,0,0,0,0,0,0,0,0,0,0,0,0,0,0,0,0,0,0,0,0,0,0,1610612740,
2684354564,0,0,0,0,0,0,0,0,0,0,0,0,0,0,0,0,0,0,0,0,0,0,0,0,0,0,0,0,1610612740,
1610612747,4,4,4,4,4,4,4,4,4,4,4,4,4,4,4,4,4,4,4,4,4,4,4,4,4,4,4,4,3221225483
</data>
 </layer>
 <objectgroup id="3" name="start">
  <object id="1" type="Start" x="416.285" y="415.87" width="64.0696" height="64.3717"/>
 </objectgroup>
 <objectgroup id="4" name="ground">
  <object id="5" x="0" y="0" width="952" height="32"/>
  <object id="6" x="0" y="32" width="32" height="608"/>
  <object id="8" x="32" y="608" width="928" height="32"/>
  <object id="9" x="928" y="0" width="32" height="608"/>
  <object id="15" x="320" y="96" width="96" height="32"/>
  <object id="16" x="320" y="96" width="32" height="160"/>
  <object id="17" x="352" y="224" width="32" height="128"/>
  <object id="18" x="384" y="256" width="32" height="32"/>
  <object id="19" x="320" y="320" width="64" height="32"/>
  <object id="20" x="320" y="352" width="32" height="192"/>
  <object id="21" x="288" y="352" width="64" height="64"/>
  <object id="22" x="320" y="416" width="64" height="32"/>
  <object id="23" x="320" y="512" width="128" height="32"/>
  <object id="24" x="576" y="96" width="32" height="96"/>
  <object id="25" x="544" y="160" width="32" height="128"/>
  <object id="26" x="576" y="256" width="32" height="288"/>
  <object id="27" x="544" y="256" width="64" height="32"/>
  <object id="28" x="544" y="160" width="64" height="32"/>
 </objectgroup>
</map>
